static/assets/images/networks/oktc.svg

<svg width="256" height="256" viewBox="0 0 256 256" fill="none" xmlns="http://www.w3.org/2000/svg">
<path d="M128 256C198.692 256 256 198.692 256 128C256 57.3075 198.692 0 128 0C57.3075 0 0 57.3075 0 128C0 198.692 57.3075 256 128 256Z" fill="black"/>
<path fill-rule="evenodd" clip-rule="evenodd" d="M100.846 57.344H60.0923C58.2293 57.344 56.832 58.7413 56.832 60.6043V101.358C56.832 103.221 58.2293 104.619 60.0923 104.619H100.846C102.709 104.619 104.107 103.221 104.107 101.358V60.6043C104.107 58.7413 102.709 57.344 100.846 57.344ZM148.354 104.619H107.367C105.504 104.619 104.107 106.016 104.107 107.879V148.633C104.107 150.496 105.504 151.893 107.367 151.893H148.354C149.984 151.893 151.381 150.496 151.381 148.633V107.879C151.381 106.016 149.984 104.619 148.354 104.619ZM154.642 57.344H195.396C197.259 57.344 198.656 58.7413 198.656 60.6043V101.358C198.656 103.221 197.259 104.619 195.396 104.619H154.642C152.779 104.619 151.381 103.221 151.381 101.358V60.6043C151.381 58.7413 152.779 57.344 154.642 57.344ZM100.846 151.893H60.0923C58.2293 151.893 56.832 153.291 56.832 155.154V195.908C56.832 197.771 58.2293 199.168 60.0923 199.168H100.846C102.709 199.168 104.107 197.771 104.107 195.908V155.154C104.107 153.291 102.709 151.893 100.846 151.893ZM154.642 151.893H195.396C197.259 151.893 198.656 153.291 198.656 155.154V195.908C198.656 197.771 197.259 199.168 195.396 199.168H154.642C152.779 199.168 151.381 197.771 151.381 195.908V155.154C151.381 153.291 152.779 151.893 154.642 151.893Z" fill="white"/>
</svg>

<svg xmlns="http://www.w3.org/2000/svg" fill="none" viewBox="0 0 256 256"><path fill="#000" d="M128 256c70.692 0 128-57.308 128-128S198.692 0 128 0 0 57.308 0 128s57.308 128 128 128"/><path fill="#fff" fill-rule="evenodd" d="M100.846 57.344H60.092c-1.863 0-3.26 1.397-3.26 3.26v40.754c0 1.863 1.397 3.261 3.26 3.261h40.754c1.863 0 3.261-1.398 3.261-3.261V60.604c0-1.863-1.398-3.26-3.261-3.26m47.508 47.275h-40.987c-1.863 0-3.26 1.397-3.26 3.26v40.754c0 1.863 1.397 3.26 3.26 3.26h40.987c1.63 0 3.027-1.397 3.027-3.26v-40.754c0-1.863-1.397-3.26-3.027-3.26m6.288-47.275h40.754c1.863 0 3.26 1.397 3.26 3.26v40.754c0 1.863-1.397 3.261-3.26 3.261h-40.754c-1.863 0-3.261-1.398-3.261-3.261V60.604c0-1.863 1.398-3.26 3.261-3.26m-53.796 94.549H60.092c-1.863 0-3.26 1.398-3.26 3.261v40.754c0 1.863 1.397 3.26 3.26 3.26h40.754c1.863 0 3.261-1.397 3.261-3.26v-40.754c0-1.863-1.398-3.261-3.261-3.261m53.796 0h40.754c1.863 0 3.26 1.398 3.26 3.261v40.754c0 1.863-1.397 3.26-3.26 3.26h-40.754c-1.863 0-3.261-1.397-3.261-3.26v-40.754c0-1.863 1.398-3.261 3.261-3.261" clip-rule="evenodd"/></svg>
